SVG/img-revolution-1.svg

<svg width="80" height="88" viewBox="0 0 80 88" fill="none" xmlns="http://www.w3.org/2000/svg">
<path d="M79.6583 35.83L68.5483 13.83C68.1483 13.06 67.4083 12.55 66.5783 12.49L48.7983 12.57C48.0283 10.43 46.5783 8.67 44.5783 7.5V4.65C44.5783 2.08 42.5283 0 39.9583 0C37.3883 0 35.3683 2.08 35.3683 4.65V7.5C33.3783 8.64 31.9183 10.43 31.1483 12.57L13.3683 12.49C12.5183 12.55 11.7683 13.06 11.3983 13.83L0.28834 35.83C-0.00165996 36.51 -0.08166 37.28 0.08834 37.94C1.99834 44.78 7.26834 49.17 13.5083 49.17C19.7483 49.17 25.0783 44.78 26.9583 37.94C27.1583 37.28 27.0683 36.52 26.7583 35.83L18.1283 18.76L31.2083 18.79C31.9783 20.9 33.4583 22.64 35.3983 23.75V49.08C36.8783 48.74 38.4183 48.57 39.9883 48.57C41.5583 48.57 43.1183 48.74 44.6083 49.08V23.75C46.5483 22.64 47.9983 20.9 48.7683 18.79L61.8783 18.76L53.2183 35.83C52.9283 36.51 52.8483 37.28 52.9883 37.94C54.8983 44.78 60.1983 49.17 66.4683 49.17C72.7383 49.17 78.0083 44.78 79.9183 37.94C80.0883 37.28 79.9983 36.52 79.6883 35.83H79.6583ZM20.7183 34.95H6.32834L13.5083 20.7L20.7183 34.95ZM59.2283 34.95L66.4383 20.68L73.6483 34.95H59.2283Z" fill="#07E993"/>
<path d="M39.9784 52.0801C30.1184 52.0801 22.1284 60.0701 22.1284 69.9301C22.1284 79.7901 30.1184 87.7801 39.9784 87.7801C49.8384 87.7801 57.8284 79.7901 57.8284 69.9301C57.8284 60.0701 49.8384 52.0801 39.9784 52.0801ZM48.4284 67.3901L39.0584 76.7601C38.6284 77.1901 38.0584 77.4101 37.4884 77.4101C36.9184 77.4101 36.3484 77.1901 35.9184 76.7601L31.2584 72.1101C30.3884 71.2401 30.3884 69.8401 31.2584 68.9701C32.1284 68.1001 33.5284 68.1001 34.3984 68.9701L37.4884 72.0501L45.2884 64.2501C46.1584 63.3801 47.5584 63.3801 48.4284 64.2501C49.2984 65.1201 49.2984 66.5201 48.4284 67.3901Z" fill="#07E993"/>
</svg>

<?xml version="1.0" encoding="UTF-8"?>
<svg id="Layer_2" data-name="Layer 2" xmlns="http://www.w3.org/2000/svg" xmlns:xlink="http://www.w3.org/1999/xlink" viewBox="0 0 79.98 87.76">
  <defs>
    <style>
      .cls-1 {
        fill: url(#linear-gradient);
      }

      .cls-1, .cls-2 {
        stroke-width: 0px;
      }

      .cls-2 {
        fill: url(#linear-gradient-2);
      }
    </style>
    <linearGradient id="linear-gradient" x1="31.35" y1="86.22" x2="46.6" y2="-.3" gradientUnits="userSpaceOnUse">
      <stop offset="0" stop-color="red"/>
      <stop offset="1" stop-color="#464961"/>
    </linearGradient>
    <linearGradient id="linear-gradient-2" x1="36.94" y1="87.2" x2="52.18" y2=".68" xlink:href="#linear-gradient"/>
  </defs>
  <g id="Design">
    <g>
      <path class="cls-1" d="M79.66,35.81l-11.11-22c-.4-.77-1.14-1.28-1.97-1.34l-17.78.08c-.77-2.14-2.22-3.9-4.22-5.07v-2.85c0-2.57-2.05-4.65-4.62-4.65s-4.59,2.08-4.59,4.65v2.85c-1.99,1.14-3.45,2.93-4.22,5.07l-17.78-.08c-.85.06-1.6.57-1.97,1.34L.29,35.81c-.29.68-.37,1.45-.2,2.11,1.91,6.84,7.18,11.23,13.42,11.23s11.57-4.39,13.45-11.23c.2-.66.11-1.42-.2-2.11l-8.63-17.07,13.08.03c.77,2.11,2.25,3.85,4.19,4.96v25.33c1.48-.34,3.02-.51,4.59-.51s3.13.17,4.62.51v-25.33c1.94-1.11,3.39-2.85,4.16-4.96l13.11-.03-8.66,17.07c-.29.68-.37,1.45-.23,2.11,1.91,6.84,7.21,11.23,13.48,11.23s11.54-4.39,13.45-11.23c.17-.66.08-1.42-.23-2.11ZM20.72,34.93H6.33l7.18-14.25,7.21,14.25ZM59.23,34.93l7.21-14.27,7.21,14.27h-14.42Z"/>
      <path class="cls-2" d="M39.98,52.06c-9.86,0-17.85,7.99-17.85,17.85s7.99,17.85,17.85,17.85,17.85-7.99,17.85-17.85-7.99-17.85-17.85-17.85ZM48.43,67.37l-9.37,9.37c-.43.43-1,.65-1.57.65s-1.14-.22-1.57-.65l-4.66-4.65c-.87-.87-.87-2.27,0-3.14.87-.87,2.27-.87,3.14,0l3.09,3.08,7.8-7.8c.87-.87,2.27-.87,3.14,0,.87.87.87,2.27,0,3.14Z"/>
    </g>
  </g>
</svg>
